packages/icons/raw/imported/ArrowsRefresh.svg

<svg width="32" height="32" viewBox="0 0 32 32" fill="none" xmlns="http://www.w3.org/2000/svg">
<path d="M18.0357 23H11.9286C10.4295 23 9.21429 21.7464 9.21429 20.2V9M6.5 11.8L9.21429 9M9.21429 9L11.9286 11.8M13.9643 9L20.0714 9C21.5705 9 22.7857 10.2536 22.7857 11.8L22.7857 23M25.5 20.2L22.7857 23M22.7857 23L20.0714 20.2" stroke="black" stroke-linecap="round" stroke-linejoin="round"/>
</svg>

<svg width="32" height="32" fill="none" xmlns="http://www.w3.org/2000/svg"><path d="M18.036 23h-6.107c-1.5 0-2.715-1.254-2.715-2.8V9M6.5 11.8 9.214 9m0 0 2.715 2.8M13.964 9h6.107c1.5 0 2.715 1.254 2.715 2.8V23m2.714-2.8L22.786 23m0 0-2.715-2.8" stroke="#000" stroke-linecap="round" stroke-linejoin="round"/></svg>
